X: 28648
T: Musical Priest, The
R: reel
M: 4/4
K: Bminor
|:BA|FB~B2 BABd|cBAf ecBA|FB~B2 BABd|cBAF B2:|
|:Bc|d2dc dfed|(3cBA eA fAeA|1 dcBc dfaf|edcd B2:|2 dcBc dbaf|edcd B2||
|:Bc|dB~B2 bafb|afec Acec|dB~B2 bafb|afec B2:|

